!! 00000] TT[WS
!!!OTL: Zhangsheng xi yuanyang
!!!ARE: Asia, China, Shanxi Ningwu
!! Ethnic Group: Han
!! WII, 196 (2)
!!!SCT: J0696
!!!YEM: Copyright 1995, estate of Helmut Schaffrath.
**kern
*ICvox
*Ivox
*M2/4
*k[b-e-a-]
*E-:
{8b-
16b-
16cc
8ee-
8g
=1
8b-
16b-
16cc
8g
8f
=2
8b-
16b-
16cc
8ee-
8g
=3
8b-
16b-
16cc
8g
8f}
=4
{16b-
16g
4b-
16ee-
16ee-
=5
8cc
8b-
8g
8f
=6
8b-
8f
8b-
16g
16f
=7
8.e-
16c
8e-
8f}
=8
{16g
16f
16e-
16c
8.f
16g
=9
8.b-
16g
8b-
16ee-
16g
=10
8f
8g
16f
16g
16f
16e-
=11
16f
16e-
4c
8e-
=12
8f
16f
16g
8e-
8c
=13
2B-}
==
!!!AGN: Xiaodiao, Shidiao. XÅshi
!!!ONB: ESAC (Essen Associative Code) Database: CHINA
!!!AMT: simple duple
!!!AIN: vox
!!!EED: Helmut Schaffrath
!!!EEV: 1.0
*-
